X: 28659
T: Musical Priest, The
R: slide
M: 12/8
K: Adorian
G|E2A A2G A3 A2c|B2A G2 B e2d B2G|E2 A A2 G A3A2c|B2A G2B A3 A2:|
|:B|c3 c2 B c2 e d2c|B2G B2d g2d B2G|c2BA2B c2d e2a|g2e d2 B A3 A2:|
|:B|c2A AAA a2g e2g|g2e d2B G2A B2G|c2 A AAA a2g e2g|g2e d2B A3 A2:|

